X:1
T:Lieder eines fahrenden Gesellen
T:Gieng heut morgen übers Feld
T:2. Gieng heut' Morgen über's Feld
T:Gustav Mahler
T:Gustav Mahler
T:Lieder eines fahrenden Gesellen
T:OpenScore (CC0)
T:OpenScore (CC0)
T:OpenScore (CC0)
T:OpenScore (CC0)
T:OpenScore (CC0)
T:OpenScore (CC0)
C:Gustav Mahler
Z:Gustav Mahler
Z:OpenScore (CC0)
%%score ( 1 2 ) { ( 3 6 ) | ( 4 5 ) }
L:1/8
M:2/2
K:D
V:1 treble nm="Voice"
V:2 treble 
V:3 treble nm="Piano"
V:6 treble 
V:4 bass 
V:5 bass 
V:1
"^Gemächlich""^(nicht eilen)""^(Leisurely)""^(do not hurry)" z8 | z4 .D2 .A,2 | .D2 E2 .F2 .G2 | %3
w: |Gieng heut|Mor- gen ü- ber's|
 A4 B2 (cd) | c2 B2 A2 F2 | G4 A2 (Bc) | B2 A2 G2 E2 | F4 G2 (AB) | A8 | z8 | !^!G4 !^!G4 | %11
w: Feld, Thau noch _|auf den Grä- sern|hieng sprach zu _|mir der lust'- ge|Fink: "Ei du! *|Gelt?||Gu- ten|
 (FGEF) D2 F2 | !^!G4 !^!G4 | ((FG)) (AB) c2 d2 | ^d3 e e4 | ^e3 f f4 | z8 | z8 | A4 z4 | A4 z4 | %20
w: Mor- * * * gen! Ei,|Gelt? Du!|Wird's * nicht * ei- ne|schö- ne Welt?|Schö- ne Welt?|||Zink!|Zink!|
 ((^defe =dc)) (BA) | d4 z4 | z2 B4 (^AB) | G2 B2 g3 f | e4 z4 | z8 | z8 | z8 | z8 | z4 D2 A,2 | %30
w: Schön _ _ _ _ _ und *|flink!|Wie mir _|doch die Welt ge-|fällt!|||||Auch die|
 D2 E2 F2 G2 | A4 B2 (cd) | c2 B2 A2 F2 | G4 A2 (Bc) | B2 A2 G2 E2 | F4 G2 (AB) | A8- | A8 | %38
w: Glo- cken- blum' am|Feld hat mir _|lu- stig, gu- ter|Ding; mit den _|Glöck- chem, klin- ge,|kling, klin- ge _|kling,|_|
 !^!G4 !^!G4 | (((FG))) (EF) D2 F2 | G4 z4 |!<(! ((FG)) (AB) c2 d2!<)! |!<(! ^d3 e e4!<)! | %43
w: ih- ren|Mor- * gen _ gruss ge-|schellt:|Wird's _ nicht _ ei- ne|schö- ne Welt?|
!f! ^e3 f f4 | z8 | z4 z2 A2 | g4 z2 A2 | f4 z4 | ((^defe =dc)) (BA) | d4 z4 | z2 d4 (^cd) | %51
w: Schö- ne Welt?||Kling!|Kling! Kling!|Kling!|Schö- * * * * * nes _|Ding!|Wie mir _|
 B2 (^AB) G2 (FG) | E2 z2 g2 A2- | A4 z4 | z8 | z8 | z8 | %57
w: doch die _ Welt ge- *|fällt! Hei- ah!|||||
"^Allmählig in ein schr gemächliches Tempo einlenken""^(Gradually turn in at a slow pace)" z8 | %58
w: |
 z8 | z8 | z8 ||[K:B] z8 | z8 |"^Noch etwas langsamer" z8 | z4!pp! B2 F2 | B2 c2 d2 e2 |!>(! f8- | %67
w: ||||||Und da|fleng im Son- nen-|schein|
!pppp! f8-!>)! | f4 z4 | z8 | z4 B2 F2 | B2 c2 d2 e2 | f8- | f4 z4 |!p! !^!F4 !^!F4 | %75
w: _|||gleich die|Welt zu fun- kein|an;|_|Al- les,|
 (F4- FG) (AB) | !^!c4 !^!c4 | (c3 d) ((BF)) (DE) | F4 z2 F2 | F3 G F4- | F2 z2 (dc) (dB) | %81
w: Al- * * les, _|Ton und|Far- * be _ ge- *|wann! Im-|Son- nen- schein!|_ Blum' _ und _|
 A2 (Bc) ((BA)) (BG) | F8 | z8 | z4 ((cB)) (AB) | c4 (cB) (AB) | c8- | c8- | c2 z2 A2 d2 | %89
w: Vo- gel, _ gross _ und _|klein!||Gu- * ten _|Tag! Gu- * ten _|Tag!|_|* Ist's nicht|
 c2 A2 F2 D2 | B4 (BA) (Gd) | B4 (BA) (Gd) | B8 | z8 | z4 (AG) (Fd) | c8- | c8- | c2 z2 z4 | %98
w: ei- ne schö- ne|Welt? Ei, _ du! _|Gelt? Ei, _ du! _|Gelt?||Schö- * ne _|Welt!|_||
"^molto riten."[Q:1/4=114] z8[Q:1/4=108] |[Q:1/4=100] z8 | z8 | z8 | %102
w: ||||
"^Sehr leise und langsam""^(very quiet and slow)" z4 F2 C2 | F2 !^!G2 A2 B2 | A8 | z8 | z8 | %107
w: "Nun fängt|auch mein Glück wohl|an?!|||
 z4"^innig""^(heartfelt)" B2 F2 | B2 !^!c2 d2 e2 | d8 | z8 | z8 | z8 | z8 | z4 B4 | G4 z4 | %116
w: Nuu fängt|auch mein Glück wohl|an?!|||||Nein!|Nein!|
 z4 ^^G2 A2 | F8 | z2 c2 g2 f2 | ^e6 d2 | c4 B4 | (A4 G4) | z8 | z8 | z8 | z8 | z8 |] %127
w: Das ich|mein',|mir nim- mer,|nim- mer|blü- hen|kann! _||||||
V:2
 x8 | x8 | x8 | x8 | x8 | x8 | x8 | x8 | x8 | x8 | x8 | x8 | x8 | x8 | x8 | x8 | x8 | x8 | x8 | %19
 x8 | ^d2 e2 x x x2 | x8 | x8 | x4 e3 d | c4 z4 | x8 | x8 | x8 | x8 | x8 | x8 | x8 | x8 | x8 | x8 | %35
 x8 | x8 | x8 | x8 | x8 | x8 | x8 | x8 | x8 | x8 | x8 | A4 x4 | A4 z4 | (^d2 e2 =dc) x2 | x8 | x8 | %51
 x8 | x4 e2 A2 | A4 x4 | x8 | x8 | x8 | x8 | x8 | x8 | x8 ||[K:B] x8 | x8 | x8 | x8 | x8 | x8 | %67
 x8 | x8 | x8 | x8 | x8 | x8 | x8 | x8 | x8 | x8 | x8 | x8 | x8 | x8 | x8 | x8 | x8 | x8 | x8 | %86
 x8 | x8 | x8 | x8 | x8 | x8 | x8 | x8 | x8 | x8 | x8 | x8 | x8 | x8 | x8 | x8 | x8 | x8 | x8 | %105
 x8 | x8 | x8 | x8 | x8 | x8 | x8 | x8 | x8 | x8 | x8 | x8 | x8 | z2 B2 ^E2 c2 | x8 | x8 | x8 | %122
 x8 | x8 | x8 | x8 | x8 |] %127
V:3
!p! .[Aa]2 .[Aa]2 .[Aa]2"_dim." .[Aa]2 | [Aa]2 [Aa]2!pp! [Aa]2 [Aa]2 | [Aa]2 [Aa]2 [Aa]2 [Aa]2 | %3
 [Ada]4 (b2 c'd' | c'2 b2 a2 f2 | [Adg]4) (a2 bc' | b2 a2 g2 e2 | [Af]4) (g2 ab | agfe dcBA | %9
 dcBA GFED) | !>!G4 !>!G4 | (FGEF .D2) .F2 | !>!G4 !>!G4 | (FGAB .c2) .d2 | %14
 .[GB^d]2 z e ((([GAe]4 | [A=d^e]2))) z f [Bdf]4- | [Bdf] z g2- g z (^g2- | gabc' e'd'c'b) | %18
 (!^![=gag']2 c'2 Pb2 a2-) | (!^![ad'a']3 ^g' =g'f'e'd' | [b^d']e'f'e' =d'c'ba | %21
 !arpeggio![fd']3 c' bagf | [dbd']) z .c'.d' .b z .^a.b | .g z .f.g .e z .^d.e | %24
 (^c.b) b2- b z!<(! (=db) | b z (^db) b z ([Be]b) | b4- .b!<)!.^a.[gb].a | %27
!f!!<(! .[gb].^a.[gb].^a [gb]=a (3[gb]ab!<)! | !///-!a2!>(! b2 !///-!a2 b2!ff! | %29
 !///-!a2 b2!>)!!pp! .a.b.a.b | abab [fa]b[ga]b | !arpeggio![Ada]4 (b2 c'd' | c'2 b2 a2 f2 | %33
 [Ag]4) (a2 bc' | b2 a2 g2 e2 | [Af]4) (g2 ab | (a)gfe dcBA | dcBA GFED) | !>!G4 !>!G4 | %39
 (FGEF .D2) .F2 | !>!G4 !>!G4 |!<(! (FGAB .c2) .d2!<)! | .[GB^d]2 z e ((([GAe]4 | %43
 [A=d^e]2))) z f [Bdf]4- | [Bdf] z g2- g z (^g2- | gabc' e'd'c'b) | (!^![=gag']2 c'2 Pb2 a2) | %47
 (!^![ad'a']3 ^g' =g'f'e'd' | [b^d']e'f'e' =d'c'ba | (!arpeggio![fd']3) c' bagf) | %50
 (d[bd']) [bd']4 [^ac'][bd'] | [gb] z [f^a][gb] [Bg] z [^Af][Bg] | [Be] z .^d.e (!>!cb) b2- | %53
 b z (db) b z (^db) | b z ([Be]b) b4 |!ff! ([B^d^e]!>(!b) b4 (^d'^^c' | ^d') z (b^a b4-)!>)!!p! | %57
 (b2 ^e2!>(! P^d2 c2- | [cfc']3 ^b =b^a!>)!^gf |!<(! ^^f^g^ag!<)! ^f!>(!^e^dc-) | %60
 ([cf]3 ^e ^dcB^A)!>)! ||[K:B]!pp! [df]6 .[^^c^e].[df] | .[Bd]2!>(! .[A^^c].[Bd] .B2 .A.B!>)! | %63
 (F=EDC B,A,B,G, |!ppp! F,4) .B2 .F2 | .B2 .c2 .d2 .e2 | (f4 g2 ab | a2 g2 f2 d2 | f4 gaga | %69
!>(! fgfg dede | f2 ga{/c'} babg | fefd BABG!>)! | FEFD B,CDG, | %73
[I:staff +1] F,G,D,E, F,A,B,[I:staff -1]D | !^!F4) !^!F4 |"_L. H."!>(! (F4- FGAB)!>)! | %76
!<(! !>![EFc]4 !>![EFc]4!<)! |!>(! ([DFc]3 d BFD)!>)! z |!<(! !^!f4 !^!f4!<)! |!>(! !^!f4 x4!>)! | %80
!<(! ([Fc]4 dcdB!<)! |!>(! A2 Bc BABG!>)! | [CF]4)!>(! ([B,D]^EFG | [CF]4) ([DG]!>)!ABd | %84
 c4) (cBAB | c4) (cBAB | [Fc]4) (d^ed^e | cdcd ABAB | c4) (d2 ^ef | ^e2 d2 c2 A2 | [B,CG]4) (BAGd | %91
 B4) (BAGd | B4) (d^ecd | BcAB GACA | F4) fgdf | cdAc FGDF | CDA,C[I:staff +1] (3F,2 G,2 D,2 | %97
 (3F,2 G,2 C,2 (3F,2 G,2 D,2 |[I:staff -1] x8 | x8 | x8 | x8 |!pp! (.[EF]2 .[EF]2 .[EF]2 .[EF]2) | %103
 (.[EF]2 .[EF]2 .[EF]2 .[EF]2) | (.[EF]2 .[EF]2) (!tenuto!.[EF]2 !tenuto!.[EFG]2 | %105
 !tenuto!.[EFA]2 !tenuto!.[EFB]2 !tenuto!.[EFc]2 !tenuto!.[EFd]2) | c8 | [EF]2 [EF]2 [EF]2 [EF]2 | %108
 [EF]2 [EF]2 [FB]2 [FB]2 | [FB]2 [FB]2 !tenuto![FB]2!<(! !tenuto![FBc]2 | %110
 !tenuto![FBd]2 !tenuto![FBe]2 !tenuto![FBf]2 !tenuto![FBg]2!<)! | [Bf]4!ppp! (([^^ca]2 [db]2)) | %112
 (([^^ca]2 [db]2)) (((([^^CA]2 [DB]2)))) | (([^^CA]2 [DB]2)) x4 | x4 (B4 | G4) z4 | z4 (^^G2 A2 | %117
 F6)"^♮" (^G2 | [FA]2 [GBc]2 [^^G^Bg]2 [Acf]2) |"^♮" !arpeggio![^E^G^^c^e]6 [DFBd]2 | %120
 !arpeggio![C=EAc]4 !arpeggio![B,DGB]4 | (A4 G4) | x4 (([dg]2 [ca]2)) | [Ff]8- | [Ff]8 | %125
!ppp! [Ff]8- | c2 z2 z4 |] %127
V:4
 z8 | z4[K:treble] .D2 .A,2 | .D2 .E2 .F2 .G2 | %3
[K:bass] !arpeggio![D,,A,,F,]4[K:treble] !tenuto![A,A]4 | !tenuto![B,A]4 (.[CA]2 .[DA]2) | %5
[K:bass] !arpeggio![D,A,B,]4[K:treble] (.[DA]2 .[A,A]2) | !tenuto![B,A]4 !tenuto![CA]4 | %7
[K:bass] (.[D,D]2 .A,2)[K:treble] (.[B,A]2 .[CA]2) | A8 | (.F2 .D2 .A,2 .F,2) | %10
[K:bass]!pp!{/^G,,} [D,,A,,]4 z4 | (D2 A,2 .F,2) .A,2 |{/^G,} [D,A,]4 z4 | %13
 !arpeggio![D,A,D]4 .A,2 .F,2 | .A,,2 .A,2 (DCB,A, | .A,,2) .A,2 (DCB,^A, | %16
 [=A,,B,]) z z2[K:treble] !arpeggio![A,=FB]4 | [A,E=GA]4 (^A,B,CD | (C4) B,CDE | %19
 [A,F]) z (A,B, CDEF | G) z (A,4 B,C | DEFG ABcd) | %22
[K:bass] !arpeggio![G,,D,B,] z D4[K:treble] .^D2 | .E2 .F2 .G2 .=A.G | %24
 [A,EG]2 [A,-EG-]2 [A,EG] z [A,FA] z | z2 [A,FA] z z2 [A,G] z | z2 ([EG]A,) A, z .c.d | cdcd cdcd | %28
 [ceg] z z2 .A z .A.A | z4 .d z .A z | d z e z[K:bass] D, z A,, z | %31
 !arpeggio![D,,A,,D,] z E, z F, z G, z | A,4 (B,2 CD | !arpeggio![D,C]2 B,2 A,2 F,2 | %34
 G,4) (A,2 B,C | [D,B,]2 A,2 G,2 E,2) | !tenuto!.F,2 .G,2 A,4- | A,8 |!pp!{/^G,,} [D,,A,,]4 z4 | %39
 (D2 A,2 .F,2) .A,2 |{/^G,} [D,A,]4 z4 | !arpeggio![D,A,D]4 .A,2 .F,2 | .A,,2 .A,2 (DCB,A, | %43
 .A,,2) .A,2 (DCB,^A, | [=A,,B,]) z z2[K:treble] !arpeggio![A,=FB]4 | [A,E=GA]4 (^A,B,CD | %46
 (C4) B,CDE | [A,F]) z (A,B, CDEF | G) z (A,4 B,C | DEFG ABcd) | %50
[K:bass] !arpeggio!.[G,,D,B,]2 z2 z4 | z2[K:treble] .^D2 .E2 .F2 | .G z .=A.G [A,EG] z z2 | %53
 z2 [A,F] z z2 [A,F] z | z2 [A,G] z z4 |[K:bass] [^G,C^E]6 C2- | C4- (C^D^EF | ^G2) x6 | %58
 (C,2 ^A,C F2) z2 | (C,2 B,-^D [B,C^G]2) z2 | (C,^A,CF) z4 ||[K:B] [B,,F,]2 F6- | !trill(!TF8 | %63
 (.B,,,2 .F,,2 .D,2 .F,,2) | (.B,,,2 .F,,2 .D,2 .F,,2) | (.B,,,2 .F,,2 .D,2 .F,,2) | %66
 (.B,,,2 .F,,2 .D,2 .F,,2) | (.B,,,2 .F,,2 .D,2 .F,,2) | (.B,,,2 .F,,2 .D,2 .F,,2) | %69
 (.B,,,2 .F,,2 .D,2 .F,,2) | (.B,,,2 .F,,2 .D,2 .F,,2) | (.B,,,2 .F,,2 .D,2 .F,,2) | %72
 (.B,,,2 .F,,2 .D,2 .F,,2) | x8 | [B,,,F,,]8 | [B,,,F,,]8 | .F,2 .F,,2 .G,,2 .A,,2 | %77
 .B,,2 .F,2 .B,2 .G,2 | z2 .F,2 .G,2 .A,2 | [B,,B,]8 | F,8 | [C,C]4 [D,B,]4 | %82
 .F,,2 .C,2 .F,2 .C,2 | .F,,2 .C,2 .F,2 .C,2 | .F,,2 .C,2 .A,2 .C,2 | .F,,2 .C,2!pp! .A,2 .C,2 | %86
 .F,,2 .C,2 .A,2 .C,2 | .F,,2 .C,2 .A,2 .C,2 | .F,,2 .C,2 .A,2 .C,2 | .F,,2 .C,2 .A,2 .C,2 | %90
 .F,,2 .C,2 .G,2 .C,2 | .F,,2 .C,2 .G,2 .C,2 | .F,,2 .C,2 .B,2 .C,2 | .F,,2 .C,2 .B,2 .C,2 | %94
 .F,,2 .C,2 (.A,2 .C,2 | .F,,2 .C,2 .A,2 .C,2 | .F,,2 .C,,2 F,,,4- | x8 | %98
"^molto riten." .F,2 .C,2 .F,2 .D,2 | .F,2 .C,2 .F,2 .D,2 | F,2) (.F,2 .F,2 .F,2 | %101
 .F,2 .F,2 .F,2 .F,2) | z4 (.F,2 .C,2 | .F,2 .G,2 .A,2 .B,2 | A,2) z2 !tenuto!F,2 !tenuto!C,2 | %105
 !tenuto!F,2 !tenuto!G,2 !tenuto!A,2 !tenuto!B,2 | A,8- | A,2 z2 (.B,2 .F,2 | .B,2 .C2 .D2 .E2 | %109
 D4) !tenuto!B,2 !tenuto!F,2 | !tenuto!B,4 !tenuto!C4 | !arpeggio![F,D]2 F2 F2 F2 | F2 F2 F,2 F,2 | %113
 F,2 F,2 (!///-!C,,,2 C,,2) | (!///-!C,,,2 C,,2-) [C,,,C,,]4- | [C,,,C,,]8- | [C,,,C,,]8- | %117
 [C,,,C,,]6 !trill(!TC2- | C8 | (3z2 [F,,F,]2 [F,,F,]2 (3[F,,F,]2 [F,,F,]2 [F,,F,]2 | %120
 ((!arpeggio![^^F,,^^F,]4 [G,,G,]4)) | (3[C,^F,]2 (C,,2 C,2 (3F,2 B,2 D2) | %122
 (3(F2 C2 F2 (3C2 ^E2 C2) | (3(D2 F,2 F2 (3F,2 F2 F,2 | (3=D2 F,2 F2 (3F,2 F2 F,2) | %125
 (3(.^F,,,2 .F,,2 .C,2 (3.F,2 .C2 .F2) | x8 |] %127
V:5
 x8 | x4[K:treble] x4 | x8 |[K:bass] x4[K:treble] x4 | x8 |[K:bass] x4[K:treble] x4 | x8 | %7
[K:bass] x4[K:treble] x4 | (.D4 .E4) | x8 |[K:bass] x8 | x8 | x8 | x8 | x8 | x8 | x4[K:treble] x4 | %17
 x8 | A,8 | x8 | x2 A,6- | A,4 z4 |[K:bass] x6[K:treble] x2 | x8 | x8 | x8 | x8 | x8 | x8 | A8 | %30
 x4[K:bass] x4 | x8 | x8 | x8 | x8 | x8 | x4 !tenuto!D,2 !tenuto!E,2 | !tenuto!F,4 !tenuto!D,4 | %38
 x8 | x8 | x8 | x8 | x8 | x8 | x4[K:treble] x4 | x8 | =A,8 | x8 | x2 A,6- | A,4 z4 |[K:bass] x8 | %51
 x2[K:treble] x6 | x8 | x8 | x8 |[K:bass] x8 | x8 | (C,2 ^G,B, ^E2) z2 | x8 | x8 | x8 ||[K:B] x8 | %62
 x8 | x8 | x8 | x8 | x8 | x8 | x8 | x8 | x8 | x8 | x8 | (.B,,,2 .F,,2 .D,2 .F,,2) | x8 | x8 | x8 | %77
 x8 | B,,8 | (F,4 G,4) | (A,,4 B,,4) | (F,6 G,2) | x8 | x8 | x8 | x8 | x8 | x8 | x8 | x8 | x8 | %91
 x8 | x8 | x8 | x8 | x8 | x8 | F,,,8- | F,,,8- | F,,,8 | z8 | z8 | F,, z z2 x4 | x8 | x8 | x8 | %106
 !arpeggio!F,,2 z2 z4 | x8 | x8 | x8 | x8 | x8 | x8 | x8 | x8 | x8 | x8 | x8 | x8 | %119
 !arpeggio![B,,,F,,]8 | x8 | x8 | x8 | x8 | x8 | x8 | x8 |] %127
V:6
 x8 | x8 | x8 | x8 | x8 | x8 | x8 | x8 | x8 | x8 | (D2 B,) z (D2 C) z | x8 | (D2 B,) z (D2 C) z | %13
 x8 | x8 | x8 | x8 | x8 | x8 | x8 | x8 | x8 | x8 | x8 | x8 | x8 | z2 A2- A z z2 | x8 | x8 | x8 | %30
 x8 | x8 | x8 | x8 | x8 | x8 | x8 | x8 | (D2 B,) z (D2 C) z | x8 | (D2 B,) z (D2 C) z | x8 | x8 | %43
 x8 | x8 | x8 | x8 | x8 | x8 | x8 | x8 | x8 | x8 | x8 | x8 | x8 | x8 | x8 | x8 | (d4 c4) | x8 || %61
[K:B] x8 | x8 | x8 | x8 | x8 | x8 | x8 | x8 | x8 | x8 | x8 | x8 | x8 | %74
 (E2!<(! F,) z (E2 F,)!<)! z | (E3 D CB,A,G,) | x8 | x8 | (e2 F) z (e2 F) z | (e3 d cBAG) | x8 | %81
 x8 | x8 | x8 | (F4 C4) | (F4 C4) | x8 | x8 | x8 | x8 | x4 D4- | D8- | D4 x4 | x8 | x8 | x8 | x8 | %97
 x8 | x8 | x8 | x8 | x8 | x8 | x8 | x8 | x8 | !arpeggio![EF]2 [EF]2 [EF]2 [EF]2 | x8 | x8 | x8 | %110
 x8 | F4 f4 | f4 F4 | F4 z4 | z4 ([B,D]2 [C^E]2 | [B,D]2 [C^E]4 [B,D]2 | %116
 [C^E]2 [B,D]2 (3[CE]2 [B,D]2 [CE]2 | [B,D]2 [A,C]4) x2 | x8 | x8 | x8 | [B,D]8 | z4 B4 | %123
 (c4 B4-) | B2 A2 c2 B2 | (B4 (A4) | [FAf]8) |] %127

